symbols/web/add_link/materialsymbolsrounded/add_link_wght600_24px.svg

<svg xmlns="http://www.w3.org/2000/svg" height="24" width="24"><path d="M7 17.475q-2.275 0-3.875-1.6T1.525 12q0-2.275 1.6-3.875T7 6.525h2.475q.55 0 .938.387.387.388.387.938 0 .55-.387.937-.388.388-.938.388H7q-1.175 0-2 .825t-.825 2q0 1.175.825 2t2 .825h2.475q.55 0 .938.387.387.388.387.938 0 .55-.387.937-.388.388-.938.388Zm1.75-4.35q-.475 0-.787-.325-.313-.325-.313-.8 0-.475.313-.8.312-.325.787-.325h6.5q.475 0 .788.325.312.325.312.8 0 .475-.312.8-.313.325-.788.325ZM22.475 12h-2.65q0-1.175-.825-2t-2-.825h-2.475q-.55 0-.937-.388Q13.2 8.4 13.2 7.85t.388-.938q.387-.387.937-.387H17q2.275 0 3.875 1.6t1.6 3.875Zm-4.1 8.475q-.475 0-.8-.312-.325-.313-.325-.788v-1.8h-1.775q-.475 0-.787-.313-.313-.312-.313-.787 0-.45.313-.775.312-.325.787-.325h1.775v-1.8q0-.475.325-.788.325-.312.8-.312.475 0 .788.312.312.313.312.788v1.8h1.775q.475 0 .8.313.325.312.325.787 0 .475-.325.787-.325.313-.8.313h-1.775v1.8q0 .475-.312.788-.313.312-.788.312Z"/></svg>

<svg xmlns="http://www.w3.org/2000/svg" height="24" width="24"><path d="M7 17.475Q4.725 17.475 3.125 15.875Q1.525 14.275 1.525 12Q1.525 9.725 3.125 8.125Q4.725 6.525 7 6.525H9.475Q10.025 6.525 10.413 6.912Q10.8 7.3 10.8 7.85Q10.8 8.4 10.413 8.787Q10.025 9.175 9.475 9.175H7Q5.825 9.175 5 10Q4.175 10.825 4.175 12Q4.175 13.175 5 14Q5.825 14.825 7 14.825H9.475Q10.025 14.825 10.413 15.212Q10.8 15.6 10.8 16.15Q10.8 16.7 10.413 17.087Q10.025 17.475 9.475 17.475ZM8.75 13.125Q8.275 13.125 7.963 12.8Q7.65 12.475 7.65 12Q7.65 11.525 7.963 11.2Q8.275 10.875 8.75 10.875H15.25Q15.725 10.875 16.038 11.2Q16.35 11.525 16.35 12Q16.35 12.475 16.038 12.8Q15.725 13.125 15.25 13.125ZM22.475 12H19.825Q19.825 10.825 19 10Q18.175 9.175 17 9.175H14.525Q13.975 9.175 13.588 8.787Q13.2 8.4 13.2 7.85Q13.2 7.3 13.588 6.912Q13.975 6.525 14.525 6.525H17Q19.275 6.525 20.875 8.125Q22.475 9.725 22.475 12ZM18.375 20.475Q17.9 20.475 17.575 20.163Q17.25 19.85 17.25 19.375V17.575H15.475Q15 17.575 14.688 17.262Q14.375 16.95 14.375 16.475Q14.375 16.025 14.688 15.7Q15 15.375 15.475 15.375H17.25V13.575Q17.25 13.1 17.575 12.787Q17.9 12.475 18.375 12.475Q18.85 12.475 19.163 12.787Q19.475 13.1 19.475 13.575V15.375H21.25Q21.725 15.375 22.05 15.688Q22.375 16 22.375 16.475Q22.375 16.95 22.05 17.262Q21.725 17.575 21.25 17.575H19.475V19.375Q19.475 19.85 19.163 20.163Q18.85 20.475 18.375 20.475Z"/></svg>
